!!!OTL: ES WAR EIN WACKER MAEGDLEIN
!!!ARE: Europa, Mitteleuropa, Deutschland
!!!SCT: E0118
!!!YEM: Copyright 1995, estate of Helmut Schaffrath.
**kern
*ICvox
*Ivox
*M3/4
*k[]
*a:
{4a
=1
2a
4a
=2
2ee
4dd
=3
2ee
4ccn
=4
2b}
{4b
=5
2ee
4dd
=6
2ccn
4b
=7
2a
4ccn
=8
2b}
{4b
=9
4a
4g#
4a
=10
2e}
{4b
=11
2ccn
4ccn
=12
2a
4b
=13
4.ccn
8dd
4ee
=14
2ee}
{4dd
=15
4ccn
4ee
4dd
=16
4ccn
2b
=17
2.a
=18
4a
4r}
==
!!!AGN: erzaehlendes Volks - Lied, Schalk -, Schelmen - Lied, betrogene Liebe     Ballade ?
!!!ONB: ESAC (Essen Associative Code) Database: ERK1
!!!AMT: simple triple
!!!AIN: vox
!!!EED: Helmut Schaffrath
!!!EEV: 1.0
*-
!!!title: @{OTL} [@{SCT}]
